alert-minus.svg

<svg fill="currentColor" viewBox="0 0 24 24"><path d="M14 19c0-2.79 1.91-5.13 4.5-5.8L12 2 1 21h13.35c-.22-.63-.35-1.3-.35-2m-1-1h-2v-2h2zm0-4h-2v-4h2zm11 4v2h-8v-2z"/></svg>

<svg  viewBox="0 0 24 24" fill="currentColor"><path  d="M14 19C14 16.21 15.91 13.87 18.5 13.2L12 2L1 21H14.35C14.13 20.37 14 19.7 14 19M13 18H11V16H13V18M13 14H11V10H13V14M24 18V20H16V18H24Z"/></svg>
